X: 10923
T: Druid's Spell
R: jig
M: 6/8
K: Aminor
age def|edc BdB|cAE FAc|G (3Bcd geg|age cde|fed cdB|cAE FAc|BAG A3:|
A3 ABc|BAG E2D|EAc FAd|G (3Bcd gfd|e3 gea|c'ba ged|age deg|c2B A3:|

